X:1
T:Title
%%score { 1 | 2 }
L:1/8
Q:1/4=96
M:3/4
K:Ab
V:1 treble nm="Grand Piano"
V:2 bass 
V:1
 [CA]>[CF] [CE]2 [CF]2 | G2 B2 E>F | G>F E2 [Fd]2 | [Ec]6 | [CA]>[CF] [CE]2 [CF]2 | G2 B2 B>B | %6
w: C.~Austin~Miles * * *||||||
 [=DB]>[Dc] [DB]2 [DF]2 |[M:2/4] [DB]4 |[M:1/4] [Fd]>c |[M:3/4] B>=A B2 _c2 | %10
w: ||||
 [Ec]2 [CA]2 [Fd]>[Ec] | B>=A B2 _c2 |[M:2/4] [Ec]4 |[M:1/4] c>c |[M:3/4] e>c A2 A2 | %15
w: |||||
[M:7/8] [FB]2 [FA]3 F2 | E>[EA] A2- A/A/- A2 |[M:9/8] [CA]8- [CA] |] %18
w: |||
V:2
 [A,,A,]>[A,,F,] [A,,E,]2 [A,,F,]2 | [E,G,D]2 [E,G,D]2 [E,G,D]>[E,A,D] | %2
 [E,B,D]>[E,A,D] [E,G,D]2 [E,G,]2 | [A,,A,]6 | [A,,A,]>[A,,F,] [A,,E,]2 [A,,F,]2 | %5
 [E,G,D]2 [E,G,D]2 [E,G,D]>[E,G,D] | [B,,A,]>[B,,A,] [B,,A,]2 [B,,A,]2 |[M:2/4] [E,G,]4 | %8
[M:1/4] [E,G,]>[E,A,E] |[M:3/4] [E,G,D]>[E,_G,C] [E,=G,D]2 [E,G,=D]2 | %10
 [A,,A,]2 [A,,A,]2 [A,,A,]>[A,,A,] | [E,A,D]>[E,_G,C] [E,=G,D]2 [E,G,=D]2 |[M:2/4] [A,,A,]4 | %13
[M:1/4][K:treble] [A,E]>[A,E] |[M:3/4] [A,C_G]>[A,EG] [A,CG]2 [A,CG]2 | %15
[M:7/8][K:bass] [D,D]2 [D,D]3 [D,A,D]2 | [C,A,]>[C,A,][D,F,D] z z/ .[D,=E,D]3/2 z | %17
[M:9/8] [A,,E,]8- [A,,E,] |] %18

